X:1
T: Lady Lucy Lesslie Melville
C:Niel Gow
R:Reel
Q: 232
K:F
M:4/4
L:1/8
|:a|fd cA F2 FA|G2 gf df ga|fd cA cd1/2e1/2 fc|df cA F2 Fa|
fd cA F2 FA|G2 gf df ga|fd cA cd1/2e1/2 fc|df cA F2 FA|
Ff2g fd cA|Gg2a gf df|cf2g fd cA|BG cA F2 FA|
Ff2g fd cA|Gg2a gf dg|fa df cf Af|cA fA F2 F:|
